ix/lamp-charge_twotone.svg

<svg viewBox="0 0 24 24" fill="none" xmlns="http://www.w3.org/2000/svg" height="1em" width="1em">
  <path opacity="0.4" d="M12.0001 7.89014L10.9301 9.75014C10.6901 10.1601 10.8901 10.5001 11.3601 10.5001H12.6301C13.1101 10.5001 13.3001 10.8401 13.0601 11.2501L12.0001 13.1101" stroke="#292D32" stroke-width="1.5" stroke-linecap="round" stroke-linejoin="round"/>
  <path d="M8.30035 18.0402V16.8802C6.00035 15.4902 4.11035 12.7802 4.11035 9.90018C4.11035 4.95018 8.66035 1.07018 13.8004 2.19018C16.0604 2.69018 18.0404 4.19018 19.0704 6.26018C21.1604 10.4602 18.9604 14.9202 15.7304 16.8702V18.0302C15.7304 18.3202 15.8404 18.9902 14.7704 18.9902H9.26035C8.16035 19.0002 8.30035 18.5702 8.30035 18.0402Z" stroke="#292D32" stroke-width="1.5" stroke-linecap="round" stroke-linejoin="round"/>
  <path opacity="0.4" d="M8.5 22.0002C10.79 21.3502 13.21 21.3502 15.5 22.0002" stroke="#292D32" stroke-width="1.5" stroke-linecap="round" stroke-linejoin="round"/>
</svg>

<svg viewBox="0 0 24 24" fill="none" xmlns="http://www.w3.org/2000/svg" height="1em" width="1em">
  <path opacity=".4" d="m12 7.89-1.07 1.86c-.24.41-.04.75.43.75h1.27c.48 0 .67.34.43.75L12 13.11" stroke="#292D32" stroke-width="1.5" stroke-linecap="round" stroke-linejoin="round"/>
  <path d="M8.3 18.04v-1.16C6 15.49 4.11 12.78 4.11 9.9c0-4.95 4.55-8.83 9.69-7.71 2.26.5 4.24 2 5.27 4.07 2.09 4.2-.11 8.66-3.34 10.61v1.16c0 .29.11.96-.96.96H9.26c-1.1.01-.96-.42-.96-.95Z" stroke="#292D32" stroke-width="1.5" stroke-linecap="round" stroke-linejoin="round"/>
  <path opacity=".4" d="M8.5 22c2.29-.65 4.71-.65 7 0" stroke="#292D32" stroke-width="1.5" stroke-linecap="round" stroke-linejoin="round"/>
</svg>
